( Made using CamBam - http://www.cambam.co.uk )
( woolaston_adsr_panel 1/3/2016 1:59:56 PM )
( T3 : 3.175 )
G21 G90 G64 G40
G0 Z3.0
( T3 : 3.175 )
T3 M6
( holes )
G17
M3 S1000
G0 X7.1394 Y3.5917
G0 Z3.0
G0 X7.1519 Y3.5917
G1 F1000.0 Z0.0
G2 F2000.0 X7.1332 Y3.5809 Z-0.0333 I-0.0125 J0.0
G2 Y3.6026 Z-0.0667 I0.0062 J0.0108
G2 X7.1519 Y3.5917 Z-0.1 I0.0063 J-0.0108
G2 X7.1332 Y3.5809 Z-0.1333 I-0.0125 J0.0
G2 Y3.6026 Z-0.1667 I0.0062 J0.0108
G2 X7.1519 Y3.5917 Z-0.2 I0.0063 J-0.0108
G2 X7.1332 Y3.5809 Z-0.2333 I-0.0125 J0.0
G2 Y3.6026 Z-0.2667 I0.0062 J0.0108
G2 X7.1519 Y3.5917 Z-0.3 I0.0063 J-0.0108
G2 X7.1332 Y3.5809 Z-0.3333 I-0.0125 J0.0
G2 Y3.6026 Z-0.3667 I0.0063 J0.0108
G2 X7.1519 Y3.5917 Z-0.4 I0.0062 J-0.0108
G2 X7.1332 Y3.5809 Z-0.4333 I-0.0125 J0.0
G2 Y3.6026 Z-0.4667 I0.0063 J0.0108
G2 X7.1519 Y3.5917 Z-0.5 I0.0062 J-0.0108
G2 X7.1332 Y3.5809 Z-0.5333 I-0.0125 J0.0
G2 Y3.6026 Z-0.5667 I0.0063 J0.0108
G2 X7.1519 Y3.5917 Z-0.6 I0.0062 J-0.0108
G2 X7.1332 Y3.5809 Z-0.6333 I-0.0125 J0.0
G2 Y3.6026 Z-0.6667 I0.0062 J0.0108
G2 X7.1519 Y3.5917 Z-0.7 I0.0063 J-0.0108
G2 X7.1332 Y3.5809 Z-0.7333 I-0.0125 J0.0
G2 Y3.6026 Z-0.7667 I0.0062 J0.0108
G2 X7.1519 Y3.5917 Z-0.8 I0.0063 J-0.0108
G2 X7.1332 Y3.5809 Z-0.8333 I-0.0125 J0.0
G2 Y3.6026 Z-0.8667 I0.0062 J0.0108
G2 X7.1519 Y3.5917 Z-0.9 I0.0063 J-0.0108
G2 X7.1332 Y3.5809 Z-0.9333 I-0.0125 J0.0
G2 Y3.6026 Z-0.9667 I0.0062 J0.0108
G2 X7.1519 Y3.5917 Z-1.0 I0.0063 J-0.0108
G2 X7.1332 Y3.5809 Z-1.0333 I-0.0125 J0.0
G2 Y3.6026 Z-1.0667 I0.0062 J0.0108
G2 X7.1519 Y3.5917 Z-1.1 I0.0063 J-0.0108
G2 X7.1332 Y3.5809 Z-1.1333 I-0.0125 J0.0
G2 Y3.6026 Z-1.1667 I0.0062 J0.0108
G2 X7.1519 Y3.5917 Z-1.2 I0.0063 J-0.0108
G2 X7.1332 Y3.5809 Z-1.2333 I-0.0125 J0.0
G2 Y3.6026 Z-1.2667 I0.0062 J0.0108
G2 X7.1519 Y3.5917 Z-1.3 I0.0063 J-0.0108
G2 X7.1332 Y3.5809 Z-1.3333 I-0.0125 J0.0
G2 Y3.6026 Z-1.3667 I0.0062 J0.0108
G2 X7.1519 Y3.5917 Z-1.4 I0.0063 J-0.0108
G2 X7.1332 Y3.5809 Z-1.4333 I-0.0125 J0.0
G2 Y3.6026 Z-1.4667 I0.0062 J0.0108
G2 X7.1519 Y3.5917 Z-1.5 I0.0063 J-0.0108
G2 X7.1332 Y3.5809 Z-1.5333 I-0.0125 J0.0
G2 Y3.6026 Z-1.5667 I0.0062 J0.0108
G2 X7.1519 Y3.5917 Z-1.6 I0.0063 J-0.0108
G2 X7.1332 Y3.5809 Z-1.6333 I-0.0125 J0.0
G2 Y3.6026 Z-1.6667 I0.0062 J0.0108
G2 X7.1519 Y3.5917 Z-1.7 I0.0063 J-0.0108
G2 X7.1332 Y3.5809 Z-1.7333 I-0.0125 J0.0
G2 Y3.6026 Z-1.7667 I0.0062 J0.0108
G2 X7.1519 Y3.5917 Z-1.8 I0.0063 J-0.0108
G2 X7.1332 Y3.5809 Z-1.8333 I-0.0125 J0.0
G2 Y3.6026 Z-1.8667 I0.0062 J0.0108
G2 X7.1519 Y3.5917 Z-1.9 I0.0063 J-0.0108
G2 X7.1332 Y3.5809 Z-1.9333 I-0.0125 J0.0
G2 Y3.6026 Z-1.9667 I0.0062 J0.0108
G2 X7.1519 Y3.5917 Z-2.0 I0.0063 J-0.0108
G2 X7.1332 Y3.5809 Z-2.0333 I-0.0125 J0.0
G2 Y3.6026 Z-2.0667 I0.0062 J0.0108
G2 X7.1519 Y3.5917 Z-2.1 I0.0063 J-0.0108
G2 X7.1332 Y3.5809 Z-2.1333 I-0.0125 J0.0
G2 Y3.6026 Z-2.1667 I0.0062 J0.0108
G2 X7.1519 Y3.5917 Z-2.2 I0.0063 J-0.0108
G2 X7.1332 Y3.5809 Z-2.2333 I-0.0125 J0.0
G2 Y3.6026 Z-2.2667 I0.0062 J0.0108
G2 X7.1519 Y3.5917 Z-2.3 I0.0063 J-0.0108
G2 X7.1332 Y3.5809 Z-2.3333 I-0.0125 J0.0
G2 Y3.6026 Z-2.3667 I0.0063 J0.0108
G2 X7.1519 Y3.5917 Z-2.4 I0.0062 J-0.0108
G2 X7.1332 Y3.5809 Z-2.4333 I-0.0125 J0.0
G2 Y3.6026 Z-2.4667 I0.0063 J0.0108
G2 X7.1519 Y3.5917 Z-2.5 I0.0062 J-0.0108
G2 X7.1332 Y3.5809 Z-2.5333 I-0.0125 J0.0
G2 Y3.6026 Z-2.5667 I0.0063 J0.0108
G2 X7.1519 Y3.5917 Z-2.6 I0.0062 J-0.0108
G2 X7.1332 Y3.5809 Z-2.6333 I-0.0125 J0.0
G2 Y3.6026 Z-2.6667 I0.0063 J0.0108
G2 X7.1519 Y3.5917 Z-2.7 I0.0062 J-0.0108
G2 X7.1332 Y3.5809 Z-2.7333 I-0.0125 J0.0
G2 Y3.6026 Z-2.7667 I0.0063 J0.0108
G2 X7.1519 Y3.5917 Z-2.8 I0.0062 J-0.0108
G2 X7.1332 Y3.5809 Z-2.8333 I-0.0125 J0.0
G2 Y3.6026 Z-2.8667 I0.0063 J0.0108
G2 X7.1519 Y3.5917 Z-2.9 I0.0062 J-0.0108
G2 X7.1332 Y3.5809 Z-2.9333 I-0.0125 J0.0
G2 Y3.6026 Z-2.9667 I0.0063 J0.0108
G2 X7.1519 Y3.5917 Z-3.0 I0.0062 J-0.0108
G2 X7.1332 Y3.5809 Z-3.0333 I-0.0125 J0.0
G2 Y3.6026 Z-3.0667 I0.0063 J0.0108
G2 X7.1519 Y3.5917 Z-3.1 I0.0062 J-0.0108
G2 X7.1332 Y3.5809 Z-3.1333 I-0.0125 J0.0
G2 Y3.6026 Z-3.1667 I0.0063 J0.0108
G2 X7.1519 Y3.5917 Z-3.2 I0.0062 J-0.0108
G2 X7.1332 Y3.5809 I-0.0125 J0.0
G2 Y3.6026 I0.0063 J0.0108
G2 X7.1519 Y3.5917 I0.0062 J-0.0108
G0 Z3.0
G0 X19.5254 Y21.0461
G1 F1000.0 Z0.0
G2 F2000.0 X19.5066 Y21.0353 Z-0.0333 I-0.0125 J0.0
G2 Y21.0569 Z-0.0667 I0.0062 J0.0108
G2 X19.5254 Y21.0461 Z-0.1 I0.0063 J-0.0108
G2 X19.5066 Y21.0353 Z-0.1333 I-0.0125 J0.0
G2 Y21.0569 Z-0.1667 I0.0062 J0.0108
G2 X19.5254 Y21.0461 Z-0.2 I0.0063 J-0.0108
G2 X19.5066 Y21.0353 Z-0.2333 I-0.0125 J0.0
G2 Y21.0569 Z-0.2667 I0.0062 J0.0108
G2 X19.5254 Y21.0461 Z-0.3 I0.0063 J-0.0108
G2 X19.5066 Y21.0353 Z-0.3333 I-0.0125 J0.0
G2 Y21.0569 Z-0.3667 I0.0062 J0.0108
G2 X19.5254 Y21.0461 Z-0.4 I0.0063 J-0.0108
G2 X19.5066 Y21.0353 Z-0.4333 I-0.0125 J0.0
G2 Y21.0569 Z-0.4667 I0.0062 J0.0108
G2 X19.5254 Y21.0461 Z-0.5 I0.0063 J-0.0108
G2 X19.5066 Y21.0353 Z-0.5333 I-0.0125 J0.0
G2 Y21.0569 Z-0.5667 I0.0062 J0.0108
G2 X19.5254 Y21.0461 Z-0.6 I0.0063 J-0.0108
G2 X19.5066 Y21.0353 Z-0.6333 I-0.0125 J0.0
G2 Y21.0569 Z-0.6667 I0.0062 J0.0108
G2 X19.5254 Y21.0461 Z-0.7 I0.0063 J-0.0108
G2 X19.5066 Y21.0353 Z-0.7333 I-0.0125 J0.0
G2 Y21.0569 Z-0.7667 I0.0062 J0.0108
G2 X19.5254 Y21.0461 Z-0.8 I0.0063 J-0.0108
G2 X19.5066 Y21.0353 Z-0.8333 I-0.0125 J0.0
G2 Y21.0569 Z-0.8667 I0.0062 J0.0108
G2 X19.5254 Y21.0461 Z-0.9 I0.0063 J-0.0108
G2 X19.5066 Y21.0353 Z-0.9333 I-0.0125 J0.0
G2 Y21.0569 Z-0.9667 I0.0062 J0.0108
G2 X19.5254 Y21.0461 Z-1.0 I0.0063 J-0.0108
G2 X19.5066 Y21.0353 Z-1.0333 I-0.0125 J0.0
G2 Y21.0569 Z-1.0667 I0.0062 J0.0108
G2 X19.5254 Y21.0461 Z-1.1 I0.0063 J-0.0108
G2 X19.5066 Y21.0353 Z-1.1333 I-0.0125 J0.0
G2 Y21.0569 Z-1.1667 I0.0062 J0.0108
G2 X19.5254 Y21.0461 Z-1.2 I0.0063 J-0.0108
G2 X19.5066 Y21.0353 Z-1.2333 I-0.0125 J0.0
G2 Y21.0569 Z-1.2667 I0.0062 J0.0108
G2 X19.5254 Y21.0461 Z-1.3 I0.0063 J-0.0108
G2 X19.5066 Y21.0353 Z-1.3333 I-0.0125 J0.0
G2 Y21.0569 Z-1.3667 I0.0062 J0.0108
G2 X19.5254 Y21.0461 Z-1.4 I0.0063 J-0.0108
G2 X19.5066 Y21.0353 Z-1.4333 I-0.0125 J0.0
G2 Y21.0569 Z-1.4667 I0.0062 J0.0108
G2 X19.5254 Y21.0461 Z-1.5 I0.0063 J-0.0108
G2 X19.5066 Y21.0353 Z-1.5333 I-0.0125 J0.0
G2 Y21.0569 Z-1.5667 I0.0062 J0.0108
G2 X19.5254 Y21.0461 Z-1.6 I0.0063 J-0.0108
G2 X19.5066 Y21.0353 Z-1.6333 I-0.0125 J0.0
G2 Y21.0569 Z-1.6667 I0.0062 J0.0108
G2 X19.5254 Y21.0461 Z-1.7 I0.0063 J-0.0108
G2 X19.5066 Y21.0353 Z-1.7333 I-0.0125 J0.0
G2 Y21.0569 Z-1.7667 I0.0062 J0.0108
G2 X19.5254 Y21.0461 Z-1.8 I0.0063 J-0.0108
G2 X19.5066 Y21.0353 Z-1.8333 I-0.0125 J0.0
G2 Y21.0569 Z-1.8667 I0.0062 J0.0108
G2 X19.5254 Y21.0461 Z-1.9 I0.0063 J-0.0108
G2 X19.5066 Y21.0353 Z-1.9333 I-0.0125 J0.0
G2 Y21.0569 Z-1.9667 I0.0062 J0.0108
G2 X19.5254 Y21.0461 Z-2.0 I0.0063 J-0.0108
G2 X19.5066 Y21.0353 Z-2.0333 I-0.0125 J0.0
G2 Y21.0569 Z-2.0667 I0.0062 J0.0108
G2 X19.5254 Y21.0461 Z-2.1 I0.0063 J-0.0108
G2 X19.5066 Y21.0353 Z-2.1333 I-0.0125 J0.0
G2 Y21.0569 Z-2.1667 I0.0062 J0.0108
G2 X19.5254 Y21.0461 Z-2.2 I0.0063 J-0.0108
G2 X19.5066 Y21.0353 Z-2.2333 I-0.0125 J0.0
G2 Y21.0569 Z-2.2667 I0.0062 J0.0108
G2 X19.5254 Y21.0461 Z-2.3 I0.0063 J-0.0108
G2 X19.5066 Y21.0353 Z-2.3333 I-0.0125 J0.0
G2 Y21.0569 Z-2.3667 I0.0062 J0.0108
G2 X19.5254 Y21.0461 Z-2.4 I0.0063 J-0.0108
G2 X19.5066 Y21.0353 Z-2.4333 I-0.0125 J0.0
G2 Y21.0569 Z-2.4667 I0.0063 J0.0108
G2 X19.5254 Y21.0461 Z-2.5 I0.0062 J-0.0108
G2 X19.5066 Y21.0353 Z-2.5333 I-0.0125 J0.0
G2 Y21.0569 Z-2.5667 I0.0063 J0.0108
G2 X19.5254 Y21.0461 Z-2.6 I0.0062 J-0.0108
G2 X19.5066 Y21.0353 Z-2.6333 I-0.0125 J0.0
G2 Y21.0569 Z-2.6667 I0.0063 J0.0108
G2 X19.5254 Y21.0461 Z-2.7 I0.0062 J-0.0108
G2 X19.5066 Y21.0353 Z-2.7333 I-0.0125 J0.0
G2 Y21.0569 Z-2.7667 I0.0063 J0.0108
G2 X19.5254 Y21.0461 Z-2.8 I0.0062 J-0.0108
G2 X19.5066 Y21.0353 Z-2.8333 I-0.0125 J0.0
G2 Y21.0569 Z-2.8667 I0.0063 J0.0108
G2 X19.5254 Y21.0461 Z-2.9 I0.0062 J-0.0108
G2 X19.5066 Y21.0353 Z-2.9333 I-0.0125 J0.0
G2 Y21.0569 Z-2.9667 I0.0063 J0.0108
G2 X19.5254 Y21.0461 Z-3.0 I0.0062 J-0.0108
G2 X19.5066 Y21.0353 Z-3.0333 I-0.0125 J0.0
G2 Y21.0569 Z-3.0667 I0.0063 J0.0108
G2 X19.5254 Y21.0461 Z-3.1 I0.0062 J-0.0108
G2 X19.5066 Y21.0353 Z-3.1333 I-0.0125 J0.0
G2 Y21.0569 Z-3.1667 I0.0063 J0.0108
G2 X19.5254 Y21.0461 Z-3.2 I0.0062 J-0.0108
G2 X19.5066 Y21.0353 I-0.0125 J0.0
G2 Y21.0569 I0.0063 J0.0108
G2 X19.5254 Y21.0461 I0.0062 J-0.0108
G0 Z3.0
G0 X26.5888 Y36.2312
G1 F1000.0 Z0.0
G2 F2000.0 X26.5701 Y36.2204 Z-0.0333 I-0.0125 J0.0
G2 Y36.242 Z-0.0667 I0.0063 J0.0108
G2 X26.5888 Y36.2312 Z-0.1 I0.0062 J-0.0108
G2 X26.5701 Y36.2204 Z-0.1333 I-0.0125 J0.0
G2 Y36.242 Z-0.1667 I0.0063 J0.0108
G2 X26.5888 Y36.2312 Z-0.2 I0.0062 J-0.0108
G2 X26.5701 Y36.2204 Z-0.2333 I-0.0125 J0.0
G2 Y36.242 Z-0.2667 I0.0063 J0.0108
G2 X26.5888 Y36.2312 Z-0.3 I0.0062 J-0.0108
G2 X26.5701 Y36.2204 Z-0.3333 I-0.0125 J0.0
G2 Y36.242 Z-0.3667 I0.0063 J0.0108
G2 X26.5888 Y36.2312 Z-0.4 I0.0062 J-0.0108
G2 X26.5701 Y36.2204 Z-0.4333 I-0.0125 J0.0
G2 Y36.242 Z-0.4667 I0.0063 J0.0108
G2 X26.5888 Y36.2312 Z-0.5 I0.0062 J-0.0108
G2 X26.5701 Y36.2204 Z-0.5333 I-0.0125 J0.0
G2 Y36.242 Z-0.5667 I0.0063 J0.0108
G2 X26.5888 Y36.2312 Z-0.6 I0.0062 J-0.0108
G2 X26.5701 Y36.2204 Z-0.6333 I-0.0125 J0.0
G2 Y36.242 Z-0.6667 I0.0063 J0.0108
G2 X26.5888 Y36.2312 Z-0.7 I0.0062 J-0.0108
G2 X26.5701 Y36.2204 Z-0.7333 I-0.0125 J0.0
G2 Y36.242 Z-0.7667 I0.0063 J0.0108
G2 X26.5888 Y36.2312 Z-0.8 I0.0062 J-0.0108
G2 X26.5701 Y36.2204 Z-0.8333 I-0.0125 J0.0
G2 Y36.242 Z-0.8667 I0.0063 J0.0108
G2 X26.5888 Y36.2312 Z-0.9 I0.0062 J-0.0108
G2 X26.5701 Y36.2204 Z-0.9333 I-0.0125 J0.0
G2 Y36.242 Z-0.9667 I0.0063 J0.0108
G2 X26.5888 Y36.2312 Z-1.0 I0.0062 J-0.0108
G2 X26.5701 Y36.2204 Z-1.0333 I-0.0125 J0.0
G2 Y36.242 Z-1.0667 I0.0063 J0.0108
G2 X26.5888 Y36.2312 Z-1.1 I0.0062 J-0.0108
G2 X26.5701 Y36.2204 Z-1.1333 I-0.0125 J0.0
G2 Y36.242 Z-1.1667 I0.0063 J0.0108
G2 X26.5888 Y36.2312 Z-1.2 I0.0062 J-0.0108
G2 X26.5701 Y36.2204 Z-1.2333 I-0.0125 J0.0
G2 Y36.242 Z-1.2667 I0.0063 J0.0108
G2 X26.5888 Y36.2312 Z-1.3 I0.0062 J-0.0108
G2 X26.5701 Y36.2204 Z-1.3333 I-0.0125 J0.0
G2 Y36.242 Z-1.3667 I0.0063 J0.0108
G2 X26.5888 Y36.2312 Z-1.4 I0.0062 J-0.0108
G2 X26.5701 Y36.2204 Z-1.4333 I-0.0125 J0.0
G2 Y36.242 Z-1.4667 I0.0063 J0.0108
G2 X26.5888 Y36.2312 Z-1.5 I0.0062 J-0.0108
G2 X26.5701 Y36.2204 Z-1.5333 I-0.0125 J0.0
G2 Y36.242 Z-1.5667 I0.0063 J0.0108
G2 X26.5888 Y36.2312 Z-1.6 I0.0062 J-0.0108
G2 X26.5701 Y36.2204 Z-1.6333 I-0.0125 J0.0
G2 Y36.242 Z-1.6667 I0.0063 J0.0108
G2 X26.5888 Y36.2312 Z-1.7 I0.0062 J-0.0108
G2 X26.5701 Y36.2204 Z-1.7333 I-0.0125 J0.0
G2 Y36.242 Z-1.7667 I0.0063 J0.0108
G2 X26.5888 Y36.2312 Z-1.8 I0.0062 J-0.0108
G2 X26.5701 Y36.2204 Z-1.8333 I-0.0125 J0.0
G2 Y36.242 Z-1.8667 I0.0063 J0.0108
G2 X26.5888 Y36.2312 Z-1.9 I0.0062 J-0.0108
G2 X26.5701 Y36.2204 Z-1.9333 I-0.0125 J0.0
G2 Y36.242 Z-1.9667 I0.0063 J0.0108
G2 X26.5888 Y36.2312 Z-2.0 I0.0062 J-0.0108
G2 X26.5701 Y36.2204 Z-2.0333 I-0.0125 J0.0
G2 Y36.242 Z-2.0667 I0.0063 J0.0108
G2 X26.5888 Y36.2312 Z-2.1 I0.0062 J-0.0108
G2 X26.5701 Y36.2204 Z-2.1333 I-0.0125 J0.0
G2 Y36.242 Z-2.1667 I0.0063 J0.0108
G2 X26.5888 Y36.2312 Z-2.2 I0.0062 J-0.0108
G2 X26.5701 Y36.2204 Z-2.2333 I-0.0125 J0.0
G2 Y36.242 Z-2.2667 I0.0063 J0.0108
G2 X26.5888 Y36.2312 Z-2.3 I0.0062 J-0.0108
G2 X26.5701 Y36.2204 Z-2.3333 I-0.0125 J0.0
G2 Y36.242 Z-2.3667 I0.0063 J0.0108
G2 X26.5888 Y36.2312 Z-2.4 I0.0062 J-0.0108
G2 X26.5701 Y36.2204 Z-2.4333 I-0.0125 J0.0
G2 Y36.242 Z-2.4667 I0.0063 J0.0108
G2 X26.5888 Y36.2312 Z-2.5 I0.0062 J-0.0108
G2 X26.5701 Y36.2204 Z-2.5333 I-0.0125 J0.0
G2 Y36.242 Z-2.5667 I0.0063 J0.0108
G2 X26.5888 Y36.2312 Z-2.6 I0.0062 J-0.0108
G2 X26.5701 Y36.2204 Z-2.6333 I-0.0125 J0.0
G2 Y36.242 Z-2.6667 I0.0063 J0.0108
G2 X26.5888 Y36.2312 Z-2.7 I0.0062 J-0.0108
G2 X26.5701 Y36.2204 Z-2.7333 I-0.0125 J0.0
G2 Y36.242 Z-2.7667 I0.0063 J0.0108
G2 X26.5888 Y36.2312 Z-2.8 I0.0062 J-0.0108
G2 X26.5701 Y36.2204 Z-2.8333 I-0.0125 J0.0
G2 Y36.242 Z-2.8667 I0.0063 J0.0108
G2 X26.5888 Y36.2312 Z-2.9 I0.0062 J-0.0108
G2 X26.5701 Y36.2204 Z-2.9333 I-0.0125 J0.0
G2 Y36.242 Z-2.9667 I0.0063 J0.0108
G2 X26.5888 Y36.2312 Z-3.0 I0.0062 J-0.0108
G2 X26.5701 Y36.2204 Z-3.0333 I-0.0125 J0.0
G2 Y36.242 Z-3.0667 I0.0063 J0.0108
G2 X26.5888 Y36.2312 Z-3.1 I0.0062 J-0.0108
G2 X26.5701 Y36.2204 Z-3.1333 I-0.0125 J0.0
G2 Y36.242 Z-3.1667 I0.0063 J0.0108
G2 X26.5888 Y36.2312 Z-3.2 I0.0062 J-0.0108
G2 X26.5701 Y36.2204 I-0.0125 J0.0
G2 Y36.242 I0.0063 J0.0108
G2 X26.5888 Y36.2312 I0.0062 J-0.0108
G0 Z3.0
G0 Y54.0873
G1 F1000.0 Z0.0
G2 F2000.0 X26.5701 Y54.0765 Z-0.0333 I-0.0125 J0.0
G2 Y54.0982 Z-0.0667 I0.0063 J0.0108
G2 X26.5888 Y54.0873 Z-0.1 I0.0062 J-0.0108
G2 X26.5701 Y54.0765 Z-0.1333 I-0.0125 J0.0
G2 Y54.0982 Z-0.1667 I0.0063 J0.0108
G2 X26.5888 Y54.0873 Z-0.2 I0.0062 J-0.0108
G2 X26.5701 Y54.0765 Z-0.2333 I-0.0125 J0.0
G2 Y54.0982 Z-0.2667 I0.0063 J0.0108
G2 X26.5888 Y54.0873 Z-0.3 I0.0062 J-0.0108
G2 X26.5701 Y54.0765 Z-0.3333 I-0.0125 J0.0
G2 Y54.0982 Z-0.3667 I0.0063 J0.0108
G2 X26.5888 Y54.0873 Z-0.4 I0.0062 J-0.0108
G2 X26.5701 Y54.0765 Z-0.4333 I-0.0125 J0.0
G2 Y54.0982 Z-0.4667 I0.0063 J0.0108
G2 X26.5888 Y54.0873 Z-0.5 I0.0062 J-0.0108
G2 X26.5701 Y54.0765 Z-0.5333 I-0.0125 J0.0
G2 Y54.0982 Z-0.5667 I0.0063 J0.0108
G2 X26.5888 Y54.0873 Z-0.6 I0.0062 J-0.0108
G2 X26.5701 Y54.0765 Z-0.6333 I-0.0125 J0.0
G2 Y54.0982 Z-0.6667 I0.0063 J0.0108
G2 X26.5888 Y54.0873 Z-0.7 I0.0062 J-0.0108
G2 X26.5701 Y54.0765 Z-0.7333 I-0.0125 J0.0
G2 Y54.0982 Z-0.7667 I0.0063 J0.0108
G2 X26.5888 Y54.0873 Z-0.8 I0.0062 J-0.0108
G2 X26.5701 Y54.0765 Z-0.8333 I-0.0125 J0.0
G2 Y54.0982 Z-0.8667 I0.0063 J0.0108
G2 X26.5888 Y54.0873 Z-0.9 I0.0062 J-0.0108
G2 X26.5701 Y54.0765 Z-0.9333 I-0.0125 J0.0
G2 Y54.0982 Z-0.9667 I0.0063 J0.0108
G2 X26.5888 Y54.0873 Z-1.0 I0.0062 J-0.0108
G2 X26.5701 Y54.0765 Z-1.0333 I-0.0125 J0.0
G2 Y54.0982 Z-1.0667 I0.0063 J0.0108
G2 X26.5888 Y54.0873 Z-1.1 I0.0062 J-0.0108
G2 X26.5701 Y54.0765 Z-1.1333 I-0.0125 J0.0
G2 Y54.0982 Z-1.1667 I0.0063 J0.0108
G2 X26.5888 Y54.0873 Z-1.2 I0.0062 J-0.0108
G2 X26.5701 Y54.0765 Z-1.2333 I-0.0125 J0.0
G2 Y54.0982 Z-1.2667 I0.0063 J0.0108
G2 X26.5888 Y54.0873 Z-1.3 I0.0062 J-0.0108
G2 X26.5701 Y54.0765 Z-1.3333 I-0.0125 J0.0
G2 Y54.0982 Z-1.3667 I0.0063 J0.0108
G2 X26.5888 Y54.0873 Z-1.4 I0.0062 J-0.0108
G2 X26.5701 Y54.0765 Z-1.4333 I-0.0125 J0.0
G2 Y54.0982 Z-1.4667 I0.0063 J0.0108
G2 X26.5888 Y54.0873 Z-1.5 I0.0062 J-0.0108
G2 X26.5701 Y54.0765 Z-1.5333 I-0.0125 J0.0
G2 Y54.0982 Z-1.5667 I0.0063 J0.0108
G2 X26.5888 Y54.0873 Z-1.6 I0.0062 J-0.0108
G2 X26.5701 Y54.0765 Z-1.6333 I-0.0125 J0.0
G2 Y54.0982 Z-1.6667 I0.0063 J0.0108
G2 X26.5888 Y54.0873 Z-1.7 I0.0062 J-0.0108
G2 X26.5701 Y54.0765 Z-1.7333 I-0.0125 J0.0
G2 Y54.0982 Z-1.7667 I0.0063 J0.0108
G2 X26.5888 Y54.0873 Z-1.8 I0.0062 J-0.0108
G2 X26.5701 Y54.0765 Z-1.8333 I-0.0125 J0.0
G2 Y54.0982 Z-1.8667 I0.0063 J0.0108
G2 X26.5888 Y54.0873 Z-1.9 I0.0062 J-0.0108
G2 X26.5701 Y54.0765 Z-1.9333 I-0.0125 J0.0
G2 Y54.0982 Z-1.9667 I0.0063 J0.0108
G2 X26.5888 Y54.0873 Z-2.0 I0.0062 J-0.0108
G2 X26.5701 Y54.0765 Z-2.0333 I-0.0125 J0.0
G2 Y54.0982 Z-2.0667 I0.0063 J0.0108
G2 X26.5888 Y54.0873 Z-2.1 I0.0062 J-0.0108
G2 X26.5701 Y54.0765 Z-2.1333 I-0.0125 J0.0
G2 Y54.0982 Z-2.1667 I0.0063 J0.0108
G2 X26.5888 Y54.0873 Z-2.2 I0.0062 J-0.0108
G2 X26.5701 Y54.0765 Z-2.2333 I-0.0125 J0.0
G2 Y54.0982 Z-2.2667 I0.0063 J0.0108
G2 X26.5888 Y54.0873 Z-2.3 I0.0062 J-0.0108
G2 X26.5701 Y54.0765 Z-2.3333 I-0.0125 J0.0
G2 Y54.0982 Z-2.3667 I0.0063 J0.0108
G2 X26.5888 Y54.0873 Z-2.4 I0.0062 J-0.0108
G2 X26.5701 Y54.0765 Z-2.4333 I-0.0125 J0.0
G2 Y54.0982 Z-2.4667 I0.0063 J0.0108
G2 X26.5888 Y54.0873 Z-2.5 I0.0062 J-0.0108
G2 X26.5701 Y54.0765 Z-2.5333 I-0.0125 J0.0
G2 Y54.0982 Z-2.5667 I0.0063 J0.0108
G2 X26.5888 Y54.0873 Z-2.6 I0.0062 J-0.0108
G2 X26.5701 Y54.0765 Z-2.6333 I-0.0125 J0.0
G2 Y54.0982 Z-2.6667 I0.0063 J0.0108
G2 X26.5888 Y54.0873 Z-2.7 I0.0062 J-0.0108
G2 X26.5701 Y54.0765 Z-2.7333 I-0.0125 J0.0
G2 Y54.0982 Z-2.7667 I0.0063 J0.0108
G2 X26.5888 Y54.0873 Z-2.8 I0.0062 J-0.0108
G2 X26.5701 Y54.0765 Z-2.8333 I-0.0125 J0.0
G2 Y54.0982 Z-2.8667 I0.0063 J0.0108
G2 X26.5888 Y54.0873 Z-2.9 I0.0062 J-0.0108
G2 X26.5701 Y54.0765 Z-2.9333 I-0.0125 J0.0
G2 Y54.0982 Z-2.9667 I0.0063 J0.0108
G2 X26.5888 Y54.0873 Z-3.0 I0.0062 J-0.0108
G2 X26.5701 Y54.0765 Z-3.0333 I-0.0125 J0.0
G2 Y54.0982 Z-3.0667 I0.0063 J0.0108
G2 X26.5888 Y54.0873 Z-3.1 I0.0062 J-0.0108
G2 X26.5701 Y54.0765 Z-3.1333 I-0.0125 J0.0
G2 Y54.0982 Z-3.1667 I0.0063 J0.0108
G2 X26.5888 Y54.0873 Z-3.2 I0.0062 J-0.0108
G2 X26.5701 Y54.0765 I-0.0125 J0.0
G2 Y54.0982 I0.0063 J0.0108
G2 X26.5888 Y54.0873 I0.0062 J-0.0108
G0 Z3.0
G0 Y71.9435
G1 F1000.0 Z0.0
G2 F2000.0 X26.5701 Y71.9327 Z-0.0333 I-0.0125 J0.0
G2 Y71.9543 Z-0.0667 I0.0062 J0.0108
G2 X26.5888 Y71.9435 Z-0.1 I0.0063 J-0.0108
G2 X26.5701 Y71.9327 Z-0.1333 I-0.0125 J0.0
G2 Y71.9543 Z-0.1667 I0.0062 J0.0108
G2 X26.5888 Y71.9435 Z-0.2 I0.0063 J-0.0108
G2 X26.5701 Y71.9327 Z-0.2333 I-0.0125 J0.0
G2 Y71.9543 Z-0.2667 I0.0062 J0.0108
G2 X26.5888 Y71.9435 Z-0.3 I0.0063 J-0.0108
G2 X26.5701 Y71.9327 Z-0.3333 I-0.0125 J0.0
G2 Y71.9543 Z-0.3667 I0.0062 J0.0108
G2 X26.5888 Y71.9435 Z-0.4 I0.0063 J-0.0108
G2 X26.5701 Y71.9327 Z-0.4333 I-0.0125 J0.0
G2 Y71.9543 Z-0.4667 I0.0062 J0.0108
G2 X26.5888 Y71.9435 Z-0.5 I0.0063 J-0.0108
G2 X26.5701 Y71.9327 Z-0.5333 I-0.0125 J0.0
G2 Y71.9543 Z-0.5667 I0.0062 J0.0108
G2 X26.5888 Y71.9435 Z-0.6 I0.0063 J-0.0108
G2 X26.5701 Y71.9327 Z-0.6333 I-0.0125 J0.0
G2 Y71.9543 Z-0.6667 I0.0062 J0.0108
G2 X26.5888 Y71.9435 Z-0.7 I0.0063 J-0.0108
G2 X26.5701 Y71.9327 Z-0.7333 I-0.0125 J0.0
G2 Y71.9543 Z-0.7667 I0.0062 J0.0108
G2 X26.5888 Y71.9435 Z-0.8 I0.0063 J-0.0108
G2 X26.5701 Y71.9327 Z-0.8333 I-0.0125 J0.0
G2 Y71.9543 Z-0.8667 I0.0062 J0.0108
G2 X26.5888 Y71.9435 Z-0.9 I0.0063 J-0.0108
G2 X26.5701 Y71.9327 Z-0.9333 I-0.0125 J0.0
G2 Y71.9543 Z-0.9667 I0.0062 J0.0108
G2 X26.5888 Y71.9435 Z-1.0 I0.0063 J-0.0108
G2 X26.5701 Y71.9327 Z-1.0333 I-0.0125 J0.0
G2 Y71.9543 Z-1.0667 I0.0062 J0.0108
G2 X26.5888 Y71.9435 Z-1.1 I0.0063 J-0.0108
G2 X26.5701 Y71.9327 Z-1.1333 I-0.0125 J0.0
G2 Y71.9543 Z-1.1667 I0.0062 J0.0108
G2 X26.5888 Y71.9435 Z-1.2 I0.0063 J-0.0108
G2 X26.5701 Y71.9327 Z-1.2333 I-0.0125 J0.0
G2 Y71.9543 Z-1.2667 I0.0062 J0.0108
G2 X26.5888 Y71.9435 Z-1.3 I0.0063 J-0.0108
G2 X26.5701 Y71.9327 Z-1.3333 I-0.0125 J0.0
G2 Y71.9543 Z-1.3667 I0.0062 J0.0108
G2 X26.5888 Y71.9435 Z-1.4 I0.0063 J-0.0108
G2 X26.5701 Y71.9327 Z-1.4333 I-0.0125 J0.0
G2 Y71.9543 Z-1.4667 I0.0062 J0.0108
G2 X26.5888 Y71.9435 Z-1.5 I0.0063 J-0.0108
G2 X26.5701 Y71.9327 Z-1.5333 I-0.0125 J0.0
G2 Y71.9543 Z-1.5667 I0.0062 J0.0108
G2 X26.5888 Y71.9435 Z-1.6 I0.0063 J-0.0108
G2 X26.5701 Y71.9327 Z-1.6333 I-0.0125 J0.0
G2 Y71.9543 Z-1.6667 I0.0062 J0.0108
G2 X26.5888 Y71.9435 Z-1.7 I0.0063 J-0.0108
G2 X26.5701 Y71.9327 Z-1.7333 I-0.0125 J0.0
G2 Y71.9543 Z-1.7667 I0.0062 J0.0108
G2 X26.5888 Y71.9435 Z-1.8 I0.0063 J-0.0108
G2 X26.5701 Y71.9327 Z-1.8333 I-0.0125 J0.0
G2 Y71.9543 Z-1.8667 I0.0062 J0.0108
G2 X26.5888 Y71.9435 Z-1.9 I0.0063 J-0.0108
G2 X26.5701 Y71.9327 Z-1.9333 I-0.0125 J0.0
G2 Y71.9543 Z-1.9667 I0.0062 J0.0108
G2 X26.5888 Y71.9435 Z-2.0 I0.0063 J-0.0108
G2 X26.5701 Y71.9327 Z-2.0333 I-0.0125 J0.0
G2 Y71.9543 Z-2.0667 I0.0062 J0.0108
G2 X26.5888 Y71.9435 Z-2.1 I0.0063 J-0.0108
G2 X26.5701 Y71.9327 Z-2.1333 I-0.0125 J0.0
G2 Y71.9543 Z-2.1667 I0.0062 J0.0108
G2 X26.5888 Y71.9435 Z-2.2 I0.0063 J-0.0108
G2 X26.5701 Y71.9327 Z-2.2333 I-0.0125 J0.0
G2 Y71.9543 Z-2.2667 I0.0062 J0.0108
G2 X26.5888 Y71.9435 Z-2.3 I0.0063 J-0.0108
G2 X26.5701 Y71.9327 Z-2.3333 I-0.0125 J0.0
G2 Y71.9543 Z-2.3667 I0.0062 J0.0108
G2 X26.5888 Y71.9435 Z-2.4 I0.0063 J-0.0108
G2 X26.5701 Y71.9327 Z-2.4333 I-0.0125 J0.0
G2 Y71.9543 Z-2.4667 I0.0062 J0.0108
G2 X26.5888 Y71.9435 Z-2.5 I0.0063 J-0.0108
G2 X26.5701 Y71.9327 Z-2.5333 I-0.0125 J0.0
G2 Y71.9543 Z-2.5667 I0.0062 J0.0108
G2 X26.5888 Y71.9435 Z-2.6 I0.0063 J-0.0108
G2 X26.5701 Y71.9327 Z-2.6333 I-0.0125 J0.0
G2 Y71.9543 Z-2.6667 I0.0062 J0.0108
G2 X26.5888 Y71.9435 Z-2.7 I0.0063 J-0.0108
G2 X26.5701 Y71.9327 Z-2.7333 I-0.0125 J0.0
G2 Y71.9543 Z-2.7667 I0.0062 J0.0108
G2 X26.5888 Y71.9435 Z-2.8 I0.0063 J-0.0108
G2 X26.5701 Y71.9327 Z-2.8333 I-0.0125 J0.0
G2 Y71.9543 Z-2.8667 I0.0062 J0.0108
G2 X26.5888 Y71.9435 Z-2.9 I0.0063 J-0.0108
G2 X26.5701 Y71.9327 Z-2.9333 I-0.0125 J0.0
G2 Y71.9543 Z-2.9667 I0.0062 J0.0108
G2 X26.5888 Y71.9435 Z-3.0 I0.0063 J-0.0108
G2 X26.5701 Y71.9327 Z-3.0333 I-0.0125 J0.0
G2 Y71.9543 Z-3.0667 I0.0062 J0.0108
G2 X26.5888 Y71.9435 Z-3.1 I0.0063 J-0.0108
G2 X26.5701 Y71.9327 Z-3.1333 I-0.0125 J0.0
G2 Y71.9543 Z-3.1667 I0.0062 J0.0108
G2 X26.5888 Y71.9435 Z-3.2 I0.0063 J-0.0108
G2 X26.5701 Y71.9327 I-0.0125 J0.0
G2 Y71.9543 I0.0063 J0.0108
G2 X26.5888 Y71.9435 I0.0062 J-0.0108
G0 Z3.0
G0 X26.589 Y89.6993
G1 F1000.0 Z0.0
G2 F2000.0 X26.5703 Y89.6884 Z-0.0333 I-0.0125 J0.0
G2 Y89.7101 Z-0.0667 I0.0062 J0.0108
G2 X26.589 Y89.6993 Z-0.1 I0.0063 J-0.0108
G2 X26.5703 Y89.6884 Z-0.1333 I-0.0125 J0.0
G2 Y89.7101 Z-0.1667 I0.0062 J0.0108
G2 X26.589 Y89.6993 Z-0.2 I0.0063 J-0.0108
G2 X26.5703 Y89.6884 Z-0.2333 I-0.0125 J0.0
G2 Y89.7101 Z-0.2667 I0.0062 J0.0108
G2 X26.589 Y89.6993 Z-0.3 I0.0063 J-0.0108
G2 X26.5703 Y89.6884 Z-0.3333 I-0.0125 J0.0
G2 Y89.7101 Z-0.3667 I0.0062 J0.0108
G2 X26.589 Y89.6993 Z-0.4 I0.0063 J-0.0108
G2 X26.5703 Y89.6884 Z-0.4333 I-0.0125 J0.0
G2 Y89.7101 Z-0.4667 I0.0062 J0.0108
G2 X26.589 Y89.6993 Z-0.5 I0.0063 J-0.0108
G2 X26.5703 Y89.6884 Z-0.5333 I-0.0125 J0.0
G2 Y89.7101 Z-0.5667 I0.0062 J0.0108
G2 X26.589 Y89.6993 Z-0.6 I0.0063 J-0.0108
G2 X26.5703 Y89.6884 Z-0.6333 I-0.0125 J0.0
G2 Y89.7101 Z-0.6667 I0.0062 J0.0108
G2 X26.589 Y89.6993 Z-0.7 I0.0063 J-0.0108
G2 X26.5703 Y89.6884 Z-0.7333 I-0.0125 J0.0
G2 Y89.7101 Z-0.7667 I0.0062 J0.0108
G2 X26.589 Y89.6993 Z-0.8 I0.0063 J-0.0108
G2 X26.5703 Y89.6884 Z-0.8333 I-0.0125 J0.0
G2 Y89.7101 Z-0.8667 I0.0062 J0.0108
G2 X26.589 Y89.6993 Z-0.9 I0.0063 J-0.0108
G2 X26.5703 Y89.6884 Z-0.9333 I-0.0125 J0.0
G2 Y89.7101 Z-0.9667 I0.0062 J0.0108
G2 X26.589 Y89.6993 Z-1.0 I0.0063 J-0.0108
G2 X26.5703 Y89.6884 Z-1.0333 I-0.0125 J0.0
G2 Y89.7101 Z-1.0667 I0.0062 J0.0108
G2 X26.589 Y89.6993 Z-1.1 I0.0063 J-0.0108
G2 X26.5703 Y89.6884 Z-1.1333 I-0.0125 J0.0
G2 Y89.7101 Z-1.1667 I0.0062 J0.0108
G2 X26.589 Y89.6993 Z-1.2 I0.0063 J-0.0108
G2 X26.5703 Y89.6884 Z-1.2333 I-0.0125 J0.0
G2 Y89.7101 Z-1.2667 I0.0062 J0.0108
G2 X26.589 Y89.6993 Z-1.3 I0.0063 J-0.0108
G2 X26.5703 Y89.6884 Z-1.3333 I-0.0125 J0.0
G2 Y89.7101 Z-1.3667 I0.0062 J0.0108
G2 X26.589 Y89.6993 Z-1.4 I0.0063 J-0.0108
G2 X26.5703 Y89.6884 Z-1.4333 I-0.0125 J0.0
G2 Y89.7101 Z-1.4667 I0.0062 J0.0108
G2 X26.589 Y89.6993 Z-1.5 I0.0063 J-0.0108
G2 X26.5703 Y89.6884 Z-1.5333 I-0.0125 J0.0
G2 Y89.7101 Z-1.5667 I0.0062 J0.0108
G2 X26.589 Y89.6993 Z-1.6 I0.0063 J-0.0108
G2 X26.5703 Y89.6884 Z-1.6333 I-0.0125 J0.0
G2 Y89.7101 Z-1.6667 I0.0062 J0.0108
G2 X26.589 Y89.6993 Z-1.7 I0.0063 J-0.0108
G2 X26.5703 Y89.6884 Z-1.7333 I-0.0125 J0.0
G2 Y89.7101 Z-1.7667 I0.0062 J0.0108
G2 X26.589 Y89.6993 Z-1.8 I0.0063 J-0.0108
G2 X26.5703 Y89.6884 Z-1.8333 I-0.0125 J0.0
G2 Y89.7101 Z-1.8667 I0.0062 J0.0108
G2 X26.589 Y89.6993 Z-1.9 I0.0063 J-0.0108
G2 X26.5703 Y89.6884 Z-1.9333 I-0.0125 J0.0
G2 Y89.7101 Z-1.9667 I0.0062 J0.0108
G2 X26.589 Y89.6993 Z-2.0 I0.0063 J-0.0108
G2 X26.5703 Y89.6884 Z-2.0333 I-0.0125 J0.0
G2 Y89.7101 Z-2.0667 I0.0062 J0.0108
G2 X26.589 Y89.6993 Z-2.1 I0.0063 J-0.0108
G2 X26.5703 Y89.6884 Z-2.1333 I-0.0125 J0.0
G2 Y89.7101 Z-2.1667 I0.0062 J0.0108
G2 X26.589 Y89.6993 Z-2.2 I0.0063 J-0.0108
G2 X26.5703 Y89.6884 Z-2.2333 I-0.0125 J0.0
G2 Y89.7101 Z-2.2667 I0.0062 J0.0108
G2 X26.589 Y89.6993 Z-2.3 I0.0063 J-0.0108
G2 X26.5703 Y89.6884 Z-2.3333 I-0.0125 J0.0
G2 Y89.7101 Z-2.3667 I0.0062 J0.0108
G2 X26.589 Y89.6993 Z-2.4 I0.0063 J-0.0108
G2 X26.5703 Y89.6884 Z-2.4333 I-0.0125 J0.0
G2 Y89.7101 Z-2.4667 I0.0062 J0.0108
G2 X26.589 Y89.6993 Z-2.5 I0.0063 J-0.0108
G2 X26.5703 Y89.6884 Z-2.5333 I-0.0125 J0.0
G2 Y89.7101 Z-2.5667 I0.0062 J0.0108
G2 X26.589 Y89.6993 Z-2.6 I0.0063 J-0.0108
G2 X26.5703 Y89.6884 Z-2.6333 I-0.0125 J0.0
G2 Y89.7101 Z-2.6667 I0.0062 J0.0108
G2 X26.589 Y89.6993 Z-2.7 I0.0063 J-0.0108
G2 X26.5703 Y89.6884 Z-2.7333 I-0.0125 J0.0
G2 Y89.7101 Z-2.7667 I0.0062 J0.0108
G2 X26.589 Y89.6993 Z-2.8 I0.0063 J-0.0108
G2 X26.5703 Y89.6884 Z-2.8333 I-0.0125 J0.0
G2 Y89.7101 Z-2.8667 I0.0062 J0.0108
G2 X26.589 Y89.6993 Z-2.9 I0.0063 J-0.0108
G2 X26.5703 Y89.6884 Z-2.9333 I-0.0125 J0.0
G2 Y89.7101 Z-2.9667 I0.0062 J0.0108
G2 X26.589 Y89.6993 Z-3.0 I0.0063 J-0.0108
G2 X26.5703 Y89.6884 Z-3.0333 I-0.0125 J0.0
G2 Y89.7101 Z-3.0667 I0.0062 J0.0108
G2 X26.589 Y89.6993 Z-3.1 I0.0063 J-0.0108
G2 X26.5703 Y89.6884 Z-3.1333 I-0.0125 J0.0
G2 Y89.7101 Z-3.1667 I0.0062 J0.0108
G2 X26.589 Y89.6993 Z-3.2 I0.0063 J-0.0108
G2 X26.5703 Y89.6884 I-0.0125 J0.0
G2 Y89.7101 I0.0063 J0.0108
G2 X26.589 Y89.6993 I0.0062 J-0.0108
G0 Z3.0
G0 X19.5171 Y104.9996
G1 F1000.0 Z0.0
G2 F2000.0 X19.4983 Y104.9888 Z-0.0333 I-0.0125 J0.0
G2 Y105.0104 Z-0.0667 I0.0062 J0.0108
G2 X19.5171 Y104.9996 Z-0.1 I0.0063 J-0.0108
G2 X19.4983 Y104.9888 Z-0.1333 I-0.0125 J0.0
G2 Y105.0104 Z-0.1667 I0.0062 J0.0108
G2 X19.5171 Y104.9996 Z-0.2 I0.0063 J-0.0108
G2 X19.4983 Y104.9888 Z-0.2333 I-0.0125 J0.0
G2 Y105.0104 Z-0.2667 I0.0062 J0.0108
G2 X19.5171 Y104.9996 Z-0.3 I0.0063 J-0.0108
G2 X19.4983 Y104.9888 Z-0.3333 I-0.0125 J0.0
G2 Y105.0104 Z-0.3667 I0.0062 J0.0108
G2 X19.5171 Y104.9996 Z-0.4 I0.0063 J-0.0108
G2 X19.4983 Y104.9888 Z-0.4333 I-0.0125 J0.0
G2 Y105.0104 Z-0.4667 I0.0062 J0.0108
G2 X19.5171 Y104.9996 Z-0.5 I0.0063 J-0.0108
G2 X19.4983 Y104.9888 Z-0.5333 I-0.0125 J0.0
G2 Y105.0104 Z-0.5667 I0.0062 J0.0108
G2 X19.5171 Y104.9996 Z-0.6 I0.0063 J-0.0108
G2 X19.4983 Y104.9888 Z-0.6333 I-0.0125 J0.0
G2 Y105.0104 Z-0.6667 I0.0062 J0.0108
G2 X19.5171 Y104.9996 Z-0.7 I0.0063 J-0.0108
G2 X19.4983 Y104.9888 Z-0.7333 I-0.0125 J0.0
G2 Y105.0104 Z-0.7667 I0.0062 J0.0108
G2 X19.5171 Y104.9996 Z-0.8 I0.0063 J-0.0108
G2 X19.4983 Y104.9888 Z-0.8333 I-0.0125 J0.0
G2 Y105.0104 Z-0.8667 I0.0062 J0.0108
G2 X19.5171 Y104.9996 Z-0.9 I0.0063 J-0.0108
G2 X19.4983 Y104.9888 Z-0.9333 I-0.0125 J0.0
G2 Y105.0104 Z-0.9667 I0.0062 J0.0108
G2 X19.5171 Y104.9996 Z-1.0 I0.0063 J-0.0108
G2 X19.4983 Y104.9888 Z-1.0333 I-0.0125 J0.0
G2 Y105.0104 Z-1.0667 I0.0062 J0.0108
G2 X19.5171 Y104.9996 Z-1.1 I0.0063 J-0.0108
G2 X19.4983 Y104.9888 Z-1.1333 I-0.0125 J0.0
G2 Y105.0104 Z-1.1667 I0.0062 J0.0108
G2 X19.5171 Y104.9996 Z-1.2 I0.0063 J-0.0108
G2 X19.4983 Y104.9888 Z-1.2333 I-0.0125 J0.0
G2 Y105.0104 Z-1.2667 I0.0062 J0.0108
G2 X19.5171 Y104.9996 Z-1.3 I0.0063 J-0.0108
G2 X19.4983 Y104.9888 Z-1.3333 I-0.0125 J0.0
G2 Y105.0104 Z-1.3667 I0.0062 J0.0108
G2 X19.5171 Y104.9996 Z-1.4 I0.0063 J-0.0108
G2 X19.4983 Y104.9888 Z-1.4333 I-0.0125 J0.0
G2 Y105.0104 Z-1.4667 I0.0062 J0.0108
G2 X19.5171 Y104.9996 Z-1.5 I0.0063 J-0.0108
G2 X19.4983 Y104.9888 Z-1.5333 I-0.0125 J0.0
G2 Y105.0104 Z-1.5667 I0.0062 J0.0108
G2 X19.5171 Y104.9996 Z-1.6 I0.0063 J-0.0108
G2 X19.4983 Y104.9888 Z-1.6333 I-0.0125 J0.0
G2 Y105.0104 Z-1.6667 I0.0062 J0.0108
G2 X19.5171 Y104.9996 Z-1.7 I0.0063 J-0.0108
G2 X19.4983 Y104.9888 Z-1.7333 I-0.0125 J0.0
G2 Y105.0104 Z-1.7667 I0.0062 J0.0108
G2 X19.5171 Y104.9996 Z-1.8 I0.0063 J-0.0108
G2 X19.4983 Y104.9888 Z-1.8333 I-0.0125 J0.0
G2 Y105.0104 Z-1.8667 I0.0062 J0.0108
G2 X19.5171 Y104.9996 Z-1.9 I0.0063 J-0.0108
G2 X19.4983 Y104.9888 Z-1.9333 I-0.0125 J0.0
G2 Y105.0104 Z-1.9667 I0.0062 J0.0108
G2 X19.5171 Y104.9996 Z-2.0 I0.0063 J-0.0108
G2 X19.4983 Y104.9888 Z-2.0333 I-0.0125 J0.0
G2 Y105.0104 Z-2.0667 I0.0062 J0.0108
G2 X19.5171 Y104.9996 Z-2.1 I0.0063 J-0.0108
G2 X19.4983 Y104.9888 Z-2.1333 I-0.0125 J0.0
G2 Y105.0104 Z-2.1667 I0.0062 J0.0108
G2 X19.5171 Y104.9996 Z-2.2 I0.0063 J-0.0108
G2 X19.4983 Y104.9888 Z-2.2333 I-0.0125 J0.0
G2 Y105.0104 Z-2.2667 I0.0062 J0.0108
G2 X19.5171 Y104.9996 Z-2.3 I0.0063 J-0.0108
G2 X19.4983 Y104.9888 Z-2.3333 I-0.0125 J0.0
G2 Y105.0104 Z-2.3667 I0.0062 J0.0108
G2 X19.5171 Y104.9996 Z-2.4 I0.0063 J-0.0108
G2 X19.4983 Y104.9888 Z-2.4333 I-0.0125 J0.0
G2 Y105.0104 Z-2.4667 I0.0062 J0.0108
G2 X19.5171 Y104.9996 Z-2.5 I0.0063 J-0.0108
G2 X19.4983 Y104.9888 Z-2.5333 I-0.0125 J0.0
G2 Y105.0104 Z-2.5667 I0.0062 J0.0108
G2 X19.5171 Y104.9996 Z-2.6 I0.0063 J-0.0108
G2 X19.4983 Y104.9888 Z-2.6333 I-0.0125 J0.0
G2 Y105.0104 Z-2.6667 I0.0062 J0.0108
G2 X19.5171 Y104.9996 Z-2.7 I0.0063 J-0.0108
G2 X19.4983 Y104.9888 Z-2.7333 I-0.0125 J0.0
G2 Y105.0104 Z-2.7667 I0.0062 J0.0108
G2 X19.5171 Y104.9996 Z-2.8 I0.0063 J-0.0108
G2 X19.4983 Y104.9888 Z-2.8333 I-0.0125 J0.0
G2 Y105.0104 Z-2.8667 I0.0062 J0.0108
G2 X19.5171 Y104.9996 Z-2.9 I0.0063 J-0.0108
G2 X19.4983 Y104.9888 Z-2.9333 I-0.0125 J0.0
G2 Y105.0104 Z-2.9667 I0.0062 J0.0108
G2 X19.5171 Y104.9996 Z-3.0 I0.0063 J-0.0108
G2 X19.4983 Y104.9888 Z-3.0333 I-0.0125 J0.0
G2 Y105.0104 Z-3.0667 I0.0062 J0.0108
G2 X19.5171 Y104.9996 Z-3.1 I0.0063 J-0.0108
G2 X19.4983 Y104.9888 Z-3.1333 I-0.0125 J0.0
G2 Y105.0104 Z-3.1667 I0.0062 J0.0108
G2 X19.5171 Y104.9996 Z-3.2 I0.0063 J-0.0108
G2 X19.4983 Y104.9888 I-0.0125 J0.0
G2 Y105.0104 I0.0063 J0.0108
G2 X19.5171 Y104.9996 I0.0062 J-0.0108
G0 Z3.0
G0 X35.6395 Y125.3042
G1 F1000.0 Z0.0
G2 F2000.0 X35.6207 Y125.2934 Z-0.0333 I-0.0125 J0.0
G2 Y125.315 Z-0.0667 I0.0062 J0.0108
G2 X35.6395 Y125.3042 Z-0.1 I0.0063 J-0.0108
G2 X35.6207 Y125.2934 Z-0.1333 I-0.0125 J0.0
G2 Y125.315 Z-0.1667 I0.0062 J0.0108
G2 X35.6395 Y125.3042 Z-0.2 I0.0063 J-0.0108
G2 X35.6207 Y125.2934 Z-0.2333 I-0.0125 J0.0
G2 Y125.315 Z-0.2667 I0.0062 J0.0108
G2 X35.6395 Y125.3042 Z-0.3 I0.0063 J-0.0108
G2 X35.6207 Y125.2934 Z-0.3333 I-0.0125 J0.0
G2 Y125.315 Z-0.3667 I0.0062 J0.0108
G2 X35.6395 Y125.3042 Z-0.4 I0.0063 J-0.0108
G2 X35.6207 Y125.2934 Z-0.4333 I-0.0125 J0.0
G2 Y125.315 Z-0.4667 I0.0062 J0.0108
G2 X35.6395 Y125.3042 Z-0.5 I0.0063 J-0.0108
G2 X35.6207 Y125.2934 Z-0.5333 I-0.0125 J0.0
G2 Y125.315 Z-0.5667 I0.0062 J0.0108
G2 X35.6395 Y125.3042 Z-0.6 I0.0063 J-0.0108
G2 X35.6207 Y125.2934 Z-0.6333 I-0.0125 J0.0
G2 Y125.315 Z-0.6667 I0.0062 J0.0108
G2 X35.6395 Y125.3042 Z-0.7 I0.0063 J-0.0108
G2 X35.6207 Y125.2934 Z-0.7333 I-0.0125 J0.0
G2 Y125.315 Z-0.7667 I0.0062 J0.0108
G2 X35.6395 Y125.3042 Z-0.8 I0.0063 J-0.0108
G2 X35.6207 Y125.2934 Z-0.8333 I-0.0125 J0.0
G2 Y125.315 Z-0.8667 I0.0062 J0.0108
G2 X35.6395 Y125.3042 Z-0.9 I0.0063 J-0.0108
G2 X35.6207 Y125.2934 Z-0.9333 I-0.0125 J0.0
G2 Y125.315 Z-0.9667 I0.0062 J0.0108
G2 X35.6395 Y125.3042 Z-1.0 I0.0063 J-0.0108
G2 X35.6207 Y125.2934 Z-1.0333 I-0.0125 J0.0
G2 Y125.315 Z-1.0667 I0.0062 J0.0108
G2 X35.6395 Y125.3042 Z-1.1 I0.0063 J-0.0108
G2 X35.6207 Y125.2934 Z-1.1333 I-0.0125 J0.0
G2 Y125.315 Z-1.1667 I0.0062 J0.0108
G2 X35.6395 Y125.3042 Z-1.2 I0.0063 J-0.0108
G2 X35.6207 Y125.2934 Z-1.2333 I-0.0125 J0.0
G2 Y125.315 Z-1.2667 I0.0062 J0.0108
G2 X35.6395 Y125.3042 Z-1.3 I0.0063 J-0.0108
G2 X35.6207 Y125.2934 Z-1.3333 I-0.0125 J0.0
G2 Y125.315 Z-1.3667 I0.0062 J0.0108
G2 X35.6395 Y125.3042 Z-1.4 I0.0063 J-0.0108
G2 X35.6207 Y125.2934 Z-1.4333 I-0.0125 J0.0
G2 Y125.315 Z-1.4667 I0.0062 J0.0108
G2 X35.6395 Y125.3042 Z-1.5 I0.0063 J-0.0108
G2 X35.6207 Y125.2934 Z-1.5333 I-0.0125 J0.0
G2 Y125.315 Z-1.5667 I0.0062 J0.0108
G2 X35.6395 Y125.3042 Z-1.6 I0.0063 J-0.0108
G2 X35.6207 Y125.2934 Z-1.6333 I-0.0125 J0.0
G2 Y125.315 Z-1.6667 I0.0062 J0.0108
G2 X35.6395 Y125.3042 Z-1.7 I0.0063 J-0.0108
G2 X35.6207 Y125.2934 Z-1.7333 I-0.0125 J0.0
G2 Y125.315 Z-1.7667 I0.0062 J0.0108
G2 X35.6395 Y125.3042 Z-1.8 I0.0063 J-0.0108
G2 X35.6207 Y125.2934 Z-1.8333 I-0.0125 J0.0
G2 Y125.315 Z-1.8667 I0.0062 J0.0108
G2 X35.6395 Y125.3042 Z-1.9 I0.0063 J-0.0108
G2 X35.6207 Y125.2934 Z-1.9333 I-0.0125 J0.0
G2 Y125.315 Z-1.9667 I0.0062 J0.0108
G2 X35.6395 Y125.3042 Z-2.0 I0.0063 J-0.0108
G2 X35.6207 Y125.2934 Z-2.0333 I-0.0125 J0.0
G2 Y125.315 Z-2.0667 I0.0062 J0.0108
G2 X35.6395 Y125.3042 Z-2.1 I0.0063 J-0.0108
G2 X35.6207 Y125.2934 Z-2.1333 I-0.0125 J0.0
G2 Y125.315 Z-2.1667 I0.0062 J0.0108
G2 X35.6395 Y125.3042 Z-2.2 I0.0063 J-0.0108
G2 X35.6207 Y125.2934 Z-2.2333 I-0.0125 J0.0
G2 Y125.315 Z-2.2667 I0.0062 J0.0108
G2 X35.6395 Y125.3042 Z-2.3 I0.0063 J-0.0108
G2 X35.6207 Y125.2934 Z-2.3333 I-0.0125 J0.0
G2 Y125.315 Z-2.3667 I0.0062 J0.0108
G2 X35.6395 Y125.3042 Z-2.4 I0.0063 J-0.0108
G2 X35.6207 Y125.2934 Z-2.4333 I-0.0125 J0.0
G2 Y125.315 Z-2.4667 I0.0062 J0.0108
G2 X35.6395 Y125.3042 Z-2.5 I0.0063 J-0.0108
G2 X35.6207 Y125.2934 Z-2.5333 I-0.0125 J0.0
G2 Y125.315 Z-2.5667 I0.0062 J0.0108
G2 X35.6395 Y125.3042 Z-2.6 I0.0063 J-0.0108
G2 X35.6207 Y125.2934 Z-2.6333 I-0.0125 J0.0
G2 Y125.315 Z-2.6667 I0.0062 J0.0108
G2 X35.6395 Y125.3042 Z-2.7 I0.0063 J-0.0108
G2 X35.6207 Y125.2934 Z-2.7333 I-0.0125 J0.0
G2 Y125.315 Z-2.7667 I0.0062 J0.0108
G2 X35.6395 Y125.3042 Z-2.8 I0.0063 J-0.0108
G2 X35.6207 Y125.2934 Z-2.8333 I-0.0125 J0.0
G2 Y125.315 Z-2.8667 I0.0062 J0.0108
G2 X35.6395 Y125.3042 Z-2.9 I0.0063 J-0.0108
G2 X35.6207 Y125.2934 Z-2.9333 I-0.0125 J0.0
G2 Y125.315 Z-2.9667 I0.0063 J0.0108
G2 X35.6395 Y125.3042 Z-3.0 I0.0063 J-0.0108
G2 X35.6207 Y125.2934 Z-3.0333 I-0.0125 J0.0
G2 Y125.315 Z-3.0667 I0.0063 J0.0108
G2 X35.6395 Y125.3042 Z-3.1 I0.0063 J-0.0108
G2 X35.6207 Y125.2934 Z-3.1333 I-0.0125 J0.0
G2 Y125.315 Z-3.1667 I0.0063 J0.0108
G2 X35.6395 Y125.3042 Z-3.2 I0.0063 J-0.0108
G2 X35.6207 Y125.2934 I-0.0125 J0.0
G2 Y125.315 I0.0063 J0.0108
G2 X35.6395 Y125.3042 I0.0062 J-0.0108
( cutout )
S1000
G0 Z3.0
G0 X15.3594 Y-1.5783
G1 F1000.0 Z-0.1
G1 F2000.0 X0.0094
G2 X-1.5781 Y0.0092 I0.0 J1.5875
G1 Y128.5111
G2 X0.0094 Y130.0986 I1.5875 J0.0
G1 X42.5153
G2 X44.1028 Y128.5111 I0.0 J-1.5875
G1 Y0.0092
G2 X42.5153 Y-1.5783 I-1.5875 J0.0
G1 X15.3594
G1 F1000.0 Z-0.2
G1 F2000.0 X0.0094
G2 X-1.5781 Y0.0092 I0.0 J1.5875
G1 Y128.5111
G2 X0.0094 Y130.0986 I1.5875 J0.0
G1 X42.5153
G2 X44.1028 Y128.5111 I0.0 J-1.5875
G1 Y0.0092
G2 X42.5153 Y-1.5783 I-1.5875 J0.0
G1 X15.3594
G1 F1000.0 Z-0.3
G1 F2000.0 X0.0094
G2 X-1.5781 Y0.0092 I0.0 J1.5875
G1 Y128.5111
G2 X0.0094 Y130.0986 I1.5875 J0.0
G1 X42.5153
G2 X44.1028 Y128.5111 I0.0 J-1.5875
G1 Y0.0092
G2 X42.5153 Y-1.5783 I-1.5875 J0.0
G1 X15.3594
G1 F1000.0 Z-0.4
G1 F2000.0 X0.0094
G2 X-1.5781 Y0.0092 I0.0 J1.5875
G1 Y128.5111
G2 X0.0094 Y130.0986 I1.5875 J0.0
G1 X42.5153
G2 X44.1028 Y128.5111 I0.0 J-1.5875
G1 Y0.0092
G2 X42.5153 Y-1.5783 I-1.5875 J0.0
G1 X15.3594
G1 F1000.0 Z-0.5
G1 F2000.0 X0.0094
G2 X-1.5781 Y0.0092 I0.0 J1.5875
G1 Y128.5111
G2 X0.0094 Y130.0986 I1.5875 J0.0
G1 X42.5153
G2 X44.1028 Y128.5111 I0.0 J-1.5875
G1 Y0.0092
G2 X42.5153 Y-1.5783 I-1.5875 J0.0
G1 X15.3594
G1 F1000.0 Z-0.6
G1 F2000.0 X0.0094
G2 X-1.5781 Y0.0092 I0.0 J1.5875
G1 Y128.5111
G2 X0.0094 Y130.0986 I1.5875 J0.0
G1 X42.5153
G2 X44.1028 Y128.5111 I0.0 J-1.5875
G1 Y0.0092
G2 X42.5153 Y-1.5783 I-1.5875 J0.0
G1 X15.3594
G1 F1000.0 Z-0.7
G1 F2000.0 X0.0094
G2 X-1.5781 Y0.0092 I0.0 J1.5875
G1 Y128.5111
G2 X0.0094 Y130.0986 I1.5875 J0.0
G1 X42.5153
G2 X44.1028 Y128.5111 I0.0 J-1.5875
G1 Y0.0092
G2 X42.5153 Y-1.5783 I-1.5875 J0.0
G1 X15.3594
G1 F1000.0 Z-0.8
G1 F2000.0 X0.0094
G2 X-1.5781 Y0.0092 I0.0 J1.5875
G1 Y128.5111
G2 X0.0094 Y130.0986 I1.5875 J0.0
G1 X42.5153
G2 X44.1028 Y128.5111 I0.0 J-1.5875
G1 Y0.0092
G2 X42.5153 Y-1.5783 I-1.5875 J0.0
G1 X15.3594
G1 F1000.0 Z-0.9
G1 F2000.0 X0.0094
G2 X-1.5781 Y0.0092 I0.0 J1.5875
G1 Y128.5111
G2 X0.0094 Y130.0986 I1.5875 J0.0
G1 X42.5153
G2 X44.1028 Y128.5111 I0.0 J-1.5875
G1 Y0.0092
G2 X42.5153 Y-1.5783 I-1.5875 J0.0
G1 X15.3594
G1 F1000.0 Z-1.0
G1 F2000.0 X0.0094
G2 X-1.5781 Y0.0092 I0.0 J1.5875
G1 Y128.5111
G2 X0.0094 Y130.0986 I1.5875 J0.0
G1 X42.5153
G2 X44.1028 Y128.5111 I0.0 J-1.5875
G1 Y0.0092
G2 X42.5153 Y-1.5783 I-1.5875 J0.0
G1 X15.3594
G1 F1000.0 Z-1.1
G1 F2000.0 X0.0094
G2 X-1.5781 Y0.0092 I0.0 J1.5875
G1 Y128.5111
G2 X0.0094 Y130.0986 I1.5875 J0.0
G1 X42.5153
G2 X44.1028 Y128.5111 I0.0 J-1.5875
G1 Y0.0092
G2 X42.5153 Y-1.5783 I-1.5875 J0.0
G1 X15.3594
G1 F1000.0 Z-1.2
G1 F2000.0 X0.0094
G2 X-1.5781 Y0.0092 I0.0 J1.5875
G1 Y128.5111
G2 X0.0094 Y130.0986 I1.5875 J0.0
G1 X42.5153
G2 X44.1028 Y128.5111 I0.0 J-1.5875
G1 Y0.0092
G2 X42.5153 Y-1.5783 I-1.5875 J0.0
G1 X15.3594
G1 F1000.0 Z-1.3
G1 F2000.0 X0.0094
G2 X-1.5781 Y0.0092 I0.0 J1.5875
G1 Y27.2424
G1 Y29.3299 Z-1.2
G1 Y31.4174 Z-1.3
G1 Y116.5838
G1 Y118.6713 Z-1.2
G1 Y120.7588 Z-1.3
G1 Y128.5111
G2 X0.0094 Y130.0986 I1.5875 J0.0
G1 X42.5153
G2 X44.1028 Y128.5111 I0.0 J-1.5875
G1 Y93.6029
G1 Y91.5154 Z-1.2
G1 Y89.4279 Z-1.3
G1 Y4.2615
G1 Y2.174 Z-1.2
G1 Y0.0865 Z-1.3
G1 Y0.0092
G2 X42.5153 Y-1.5783 I-1.5875 J0.0
G1 X15.3594
G1 F1000.0 Z-1.4
G1 F2000.0 X0.0094
G2 X-1.5781 Y0.0092 I0.0 J1.5875
G1 Y27.2424
G1 Y29.3299 Z-1.2
G1 Y31.4174 Z-1.4
G1 Y116.5838
G1 Y118.6713 Z-1.2
G1 Y120.7588 Z-1.4
G1 Y128.5111
G2 X0.0094 Y130.0986 I1.5875 J0.0
G1 X42.5153
G2 X44.1028 Y128.5111 I0.0 J-1.5875
G1 Y93.6029
G1 Y91.5154 Z-1.2
G1 Y89.4279 Z-1.4
G1 Y4.2615
G1 Y2.174 Z-1.2
G1 Y0.0865 Z-1.4
G1 Y0.0092
G2 X42.5153 Y-1.5783 I-1.5875 J0.0
G1 X15.3594
G1 F1000.0 Z-1.5
G1 F2000.0 X0.0094
G2 X-1.5781 Y0.0092 I0.0 J1.5875
G1 Y27.2424
G1 Y29.3299 Z-1.2
G1 Y31.4174 Z-1.5
G1 Y116.5838
G1 Y118.6713 Z-1.2
G1 Y120.7588 Z-1.5
G1 Y128.5111
G2 X0.0094 Y130.0986 I1.5875 J0.0
G1 X42.5153
G2 X44.1028 Y128.5111 I0.0 J-1.5875
G1 Y93.6029
G1 Y91.5154 Z-1.2
G1 Y89.4279 Z-1.5
G1 Y4.2615
G1 Y2.174 Z-1.2
G1 Y0.0865 Z-1.5
G1 Y0.0092
G2 X42.5153 Y-1.5783 I-1.5875 J0.0
G1 X15.3594
G1 F1000.0 Z-1.6
G1 F2000.0 X0.0094
G2 X-1.5781 Y0.0092 I0.0 J1.5875
G1 Y27.2424
G1 Y29.3299 Z-1.2
G1 Y31.4174 Z-1.6
G1 Y116.5838
G1 Y118.6713 Z-1.2
G1 Y120.7588 Z-1.6
G1 Y128.5111
G2 X0.0094 Y130.0986 I1.5875 J0.0
G1 X42.5153
G2 X44.1028 Y128.5111 I0.0 J-1.5875
G1 Y93.6029
G1 Y91.5154 Z-1.2
G1 Y89.4279 Z-1.6
G1 Y4.2615
G1 Y2.174 Z-1.2
G1 Y0.0865 Z-1.6
G1 Y0.0092
G2 X42.5153 Y-1.5783 I-1.5875 J0.0
G1 X15.3594
G1 F1000.0 Z-1.7
G1 F2000.0 X0.0094
G2 X-1.5781 Y0.0092 I0.0 J1.5875
G1 Y27.2424
G1 Y29.3299 Z-1.2
G1 Y31.4174 Z-1.7
G1 Y116.5838
G1 Y118.6713 Z-1.2
G1 Y120.7588 Z-1.7
G1 Y128.5111
G2 X0.0094 Y130.0986 I1.5875 J0.0
G1 X42.5153
G2 X44.1028 Y128.5111 I0.0 J-1.5875
G1 Y93.6029
G1 Y91.5154 Z-1.2
G1 Y89.4279 Z-1.7
G1 Y4.2615
G1 Y2.174 Z-1.2
G1 Y0.0865 Z-1.7
G1 Y0.0092
G2 X42.5153 Y-1.5783 I-1.5875 J0.0
G1 X15.3594
G1 F1000.0 Z-1.8
G1 F2000.0 X0.0094
G2 X-1.5781 Y0.0092 I0.0 J1.5875
G1 Y27.2424
G1 Y29.3299 Z-1.2
G1 Y31.4174 Z-1.8
G1 Y116.5838
G1 Y118.6713 Z-1.2
G1 Y120.7588 Z-1.8
G1 Y128.5111
G2 X0.0094 Y130.0986 I1.5875 J0.0
G1 X42.5153
G2 X44.1028 Y128.5111 I0.0 J-1.5875
G1 Y93.6029
G1 Y91.5154 Z-1.2
G1 Y89.4279 Z-1.8
G1 Y4.2615
G1 Y2.174 Z-1.2
G1 Y0.0865 Z-1.8
G1 Y0.0092
G2 X42.5153 Y-1.5783 I-1.5875 J0.0
G1 X15.3594
G1 F1000.0 Z-1.9
G1 F2000.0 X0.0094
G2 X-1.5781 Y0.0092 I0.0 J1.5875
G1 Y27.2424
G1 Y29.3299 Z-1.2
G1 Y31.4174 Z-1.9
G1 Y116.5838
G1 Y118.6713 Z-1.2
G1 Y120.7588 Z-1.9
G1 Y128.5111
G2 X0.0094 Y130.0986 I1.5875 J0.0
G1 X42.5153
G2 X44.1028 Y128.5111 I0.0 J-1.5875
G1 Y93.6029
G1 Y91.5154 Z-1.2
G1 Y89.4279 Z-1.9
G1 Y4.2615
G1 Y2.174 Z-1.2
G1 Y0.0865 Z-1.9
G1 Y0.0092
G2 X42.5153 Y-1.5783 I-1.5875 J0.0
G1 X15.3594
G1 F1000.0 Z-2.0
G1 F2000.0 X0.0094
G2 X-1.5781 Y0.0092 I0.0 J1.5875
G1 Y27.2424
G1 Y29.3299 Z-1.2
G1 Y31.4174 Z-2.0
G1 Y116.5838
G1 Y118.6713 Z-1.2
G1 Y120.7588 Z-2.0
G1 Y128.5111
G2 X0.0094 Y130.0986 I1.5875 J0.0
G1 X42.5153
G2 X44.1028 Y128.5111 I0.0 J-1.5875
G1 Y93.6029
G1 Y91.5154 Z-1.2
G1 Y89.4279 Z-2.0
G1 Y4.2615
G1 Y2.174 Z-1.2
G1 Y0.0865 Z-2.0
G1 Y0.0092
G2 X42.5153 Y-1.5783 I-1.5875 J0.0
G1 X15.3594
G1 F1000.0 Z-2.1
G1 F2000.0 X0.0094
G2 X-1.5781 Y0.0092 I0.0 J1.5875
G1 Y27.2424
G1 Y29.3299 Z-1.2
G1 Y31.4174 Z-2.1
G1 Y116.5838
G1 Y118.6713 Z-1.2
G1 Y120.7588 Z-2.1
G1 Y128.5111
G2 X0.0094 Y130.0986 I1.5875 J0.0
G1 X42.5153
G2 X44.1028 Y128.5111 I0.0 J-1.5875
G1 Y93.6029
G1 Y91.5154 Z-1.2
G1 Y89.4279 Z-2.1
G1 Y4.2615
G1 Y2.174 Z-1.2
G1 Y0.0865 Z-2.1
G1 Y0.0092
G2 X42.5153 Y-1.5783 I-1.5875 J0.0
G1 X15.3594
G1 F1000.0 Z-2.2
G1 F2000.0 X0.0094
G2 X-1.5781 Y0.0092 I0.0 J1.5875
G1 Y27.2424
G1 Y29.3299 Z-1.2
G1 Y31.4174 Z-2.2
G1 Y116.5838
G1 Y118.6713 Z-1.2
G1 Y120.7588 Z-2.2
G1 Y128.5111
G2 X0.0094 Y130.0986 I1.5875 J0.0
G1 X42.5153
G2 X44.1028 Y128.5111 I0.0 J-1.5875
G1 Y93.6029
G1 Y91.5154 Z-1.2
G1 Y89.4279 Z-2.2
G1 Y4.2615
G1 Y2.174 Z-1.2
G1 Y0.0865 Z-2.2
G1 Y0.0092
G2 X42.5153 Y-1.5783 I-1.5875 J0.0
G1 X15.3594
G1 F1000.0 Z-2.3
G1 F2000.0 X0.0094
G2 X-1.5781 Y0.0092 I0.0 J1.5875
G1 Y27.2424
G1 Y29.3299 Z-1.2
G1 Y31.4174 Z-2.3
G1 Y116.5838
G1 Y118.6713 Z-1.2
G1 Y120.7588 Z-2.3
G1 Y128.5111
G2 X0.0094 Y130.0986 I1.5875 J0.0
G1 X42.5153
G2 X44.1028 Y128.5111 I0.0 J-1.5875
G1 Y93.6029
G1 Y91.5154 Z-1.2
G1 Y89.4279 Z-2.3
G1 Y4.2615
G1 Y2.174 Z-1.2
G1 Y0.0865 Z-2.3
G1 Y0.0092
G2 X42.5153 Y-1.5783 I-1.5875 J0.0
G1 X15.3594
G1 F1000.0 Z-2.4
G1 F2000.0 X0.0094
G2 X-1.5781 Y0.0092 I0.0 J1.5875
G1 Y27.2424
G1 Y29.3299 Z-1.2
G1 Y31.4174 Z-2.4
G1 Y116.5838
G1 Y118.6713 Z-1.2
G1 Y120.7588 Z-2.4
G1 Y128.5111
G2 X0.0094 Y130.0986 I1.5875 J0.0
G1 X42.5153
G2 X44.1028 Y128.5111 I0.0 J-1.5875
G1 Y93.6029
G1 Y91.5154 Z-1.2
G1 Y89.4279 Z-2.4
G1 Y4.2615
G1 Y2.174 Z-1.2
G1 Y0.0865 Z-2.4
G1 Y0.0092
G2 X42.5153 Y-1.5783 I-1.5875 J0.0
G1 X15.3594
G1 F1000.0 Z-2.5
G1 F2000.0 X0.0094
G2 X-1.5781 Y0.0092 I0.0 J1.5875
G1 Y27.2424
G1 Y29.3299 Z-1.2
G1 Y31.4174 Z-2.5
G1 Y116.5838
G1 Y118.6713 Z-1.2
G1 Y120.7588 Z-2.5
G1 Y128.5111
G2 X0.0094 Y130.0986 I1.5875 J0.0
G1 X42.5153
G2 X44.1028 Y128.5111 I0.0 J-1.5875
G1 Y93.6029
G1 Y91.5154 Z-1.2
G1 Y89.4279 Z-2.5
G1 Y4.2615
G1 Y2.174 Z-1.2
G1 Y0.0865 Z-2.5
G1 Y0.0092
G2 X42.5153 Y-1.5783 I-1.5875 J0.0
G1 X15.3594
G1 F1000.0 Z-2.6
G1 F2000.0 X0.0094
G2 X-1.5781 Y0.0092 I0.0 J1.5875
G1 Y27.2424
G1 Y29.3299 Z-1.2
G1 Y31.4174 Z-2.6
G1 Y116.5838
G1 Y118.6713 Z-1.2
G1 Y120.7588 Z-2.6
G1 Y128.5111
G2 X0.0094 Y130.0986 I1.5875 J0.0
G1 X42.5153
G2 X44.1028 Y128.5111 I0.0 J-1.5875
G1 Y93.6029
G1 Y91.5154 Z-1.2
G1 Y89.4279 Z-2.6
G1 Y4.2615
G1 Y2.174 Z-1.2
G1 Y0.0865 Z-2.6
G1 Y0.0092
G2 X42.5153 Y-1.5783 I-1.5875 J0.0
G1 X15.3594
G1 F1000.0 Z-2.7
G1 F2000.0 X0.0094
G2 X-1.5781 Y0.0092 I0.0 J1.5875
G1 Y27.2424
G1 Y29.3299 Z-1.2
G1 Y31.4174 Z-2.7
G1 Y116.5838
G1 Y118.6713 Z-1.2
G1 Y120.7588 Z-2.7
G1 Y128.5111
G2 X0.0094 Y130.0986 I1.5875 J0.0
G1 X42.5153
G2 X44.1028 Y128.5111 I0.0 J-1.5875
G1 Y93.6029
G1 Y91.5154 Z-1.2
G1 Y89.4279 Z-2.7
G1 Y4.2615
G1 Y2.174 Z-1.2
G1 Y0.0865 Z-2.7
G1 Y0.0092
G2 X42.5153 Y-1.5783 I-1.5875 J0.0
G1 X15.3594
G1 F1000.0 Z-2.8
G1 F2000.0 X0.0094
G2 X-1.5781 Y0.0092 I0.0 J1.5875
G1 Y27.2424
G1 Y29.3299 Z-1.2
G1 Y31.4174 Z-2.8
G1 Y116.5838
G1 Y118.6713 Z-1.2
G1 Y120.7588 Z-2.8
G1 Y128.5111
G2 X0.0094 Y130.0986 I1.5875 J0.0
G1 X42.5153
G2 X44.1028 Y128.5111 I0.0 J-1.5875
G1 Y93.6029
G1 Y91.5154 Z-1.2
G1 Y89.4279 Z-2.8
G1 Y4.2615
G1 Y2.174 Z-1.2
G1 Y0.0865 Z-2.8
G1 Y0.0092
G2 X42.5153 Y-1.5783 I-1.5875 J0.0
G1 X15.3594
G1 F1000.0 Z-2.9
G1 F2000.0 X0.0094
G2 X-1.5781 Y0.0092 I0.0 J1.5875
G1 Y27.2424
G1 Y29.3299 Z-1.2
G1 Y31.4174 Z-2.9
G1 Y116.5838
G1 Y118.6713 Z-1.2
G1 Y120.7588 Z-2.9
G1 Y128.5111
G2 X0.0094 Y130.0986 I1.5875 J0.0
G1 X42.5153
G2 X44.1028 Y128.5111 I0.0 J-1.5875
G1 Y93.6029
G1 Y91.5154 Z-1.2
G1 Y89.4279 Z-2.9
G1 Y4.2615
G1 Y2.174 Z-1.2
G1 Y0.0865 Z-2.9
G1 Y0.0092
G2 X42.5153 Y-1.5783 I-1.5875 J0.0
G1 X15.3594
G1 F1000.0 Z-3.0
G1 F2000.0 X0.0094
G2 X-1.5781 Y0.0092 I0.0 J1.5875
G1 Y27.2424
G1 Y29.3299 Z-1.2
G1 Y31.4174 Z-3.0
G1 Y116.5838
G1 Y118.6713 Z-1.2
G1 Y120.7588 Z-3.0
G1 Y128.5111
G2 X0.0094 Y130.0986 I1.5875 J0.0
G1 X42.5153
G2 X44.1028 Y128.5111 I0.0 J-1.5875
G1 Y93.6029
G1 Y91.5154 Z-1.2
G1 Y89.4279 Z-3.0
G1 Y4.2615
G1 Y2.174 Z-1.2
G1 Y0.0865 Z-3.0
G1 Y0.0092
G2 X42.5153 Y-1.5783 I-1.5875 J0.0
G1 X15.3594
G1 F1000.0 Z-3.1
G1 F2000.0 X0.0094
G2 X-1.5781 Y0.0092 I0.0 J1.5875
G1 Y27.2424
G1 Y29.3299 Z-1.2
G1 Y31.4174 Z-3.1
G1 Y116.5838
G1 Y118.6713 Z-1.2
G1 Y120.7588 Z-3.1
G1 Y128.5111
G2 X0.0094 Y130.0986 I1.5875 J0.0
G1 X42.5153
G2 X44.1028 Y128.5111 I0.0 J-1.5875
G1 Y93.6029
G1 Y91.5154 Z-1.2
G1 Y89.4279 Z-3.1
G1 Y4.2615
G1 Y2.174 Z-1.2
G1 Y0.0865 Z-3.1
G1 Y0.0092
G2 X42.5153 Y-1.5783 I-1.5875 J0.0
G1 X15.3594
G1 F1000.0 Z-3.2
G1 F2000.0 X0.0094
G2 X-1.5781 Y0.0092 I0.0 J1.5875
G1 Y27.2424
G1 Y29.3299 Z-1.2
G1 Y31.4174 Z-3.2
G1 Y116.5838
G1 Y118.6713 Z-1.2
G1 Y120.7588 Z-3.2
G1 Y128.5111
G2 X0.0094 Y130.0986 I1.5875 J0.0
G1 X42.5153
G2 X44.1028 Y128.5111 I0.0 J-1.5875
G1 Y93.6029
G1 Y91.5154 Z-1.2
G1 Y89.4279 Z-3.2
G1 Y4.2615
G1 Y2.174 Z-1.2
G1 Y0.0865 Z-3.2
G1 Y0.0092
G2 X42.5153 Y-1.5783 I-1.5875 J0.0
G1 X15.3594
G0 Z3.0
M5
M30
