(/Applications/pcbgcode.repo/pcb-gcode.ulp)
(Copyright 2005 - 2012 by John Johnson)
(See readme.txt for licensing terms.)
(This file generated from the board:)
(.../Woollaston-ADSR/eagle/woolston_adsr.brd)
(Current profile is .../pcbgcode.repo/profiles/mach.pp  )
(This file generated 1/1/16 1:21 AM)
(Settings from pcb-machine.h)
(spindle on time = 0.0000)
(spindle speed = 20000.0000)
(tool change at 0.0000  0.0000  3.0000  )
(feed rate xy = F0     )
(feed rate z  = F20    )
(Z Axis Settings)
(  High     Up        Down     Drill)
(1.0000  	0.0500  	-0.0040 	-0.0730 )
(Settings from pcb-defaults.h)
(isolate min = 0.0010)
(isolate max = 0.0150)
(isolate step = 0.0015)
(Generated bottom outlines, bottom drill, )
(Unit of measure: inch)
( Tool|       Size       |  Min Sub |  Max Sub |   Count )
( T01 | 0.800mm 0.0315in | 0.0000in | 0.0000in |       0 )
( T02 | 0.813mm 0.0320in | 0.0000in | 0.0000in |       0 )
( T03 | 1.016mm 0.0400in | 0.0000in | 0.0000in |       0 )
( T04 | 1.118mm 0.0440in | 0.0000in | 0.0000in |       0 )
( T05 | 1.200mm 0.0472in | 0.0000in | 0.0000in |       0 )
( T06 | 1.300mm 0.0512in | 0.0000in | 0.0000in |       0 )
(Inch Mode)
G20
(Absolute Coordinates)
G90
S20000
G00 Z1.0000  
G00 X0.0000  Y0.0000  
M03
G04 P0.000000
M05
G00 Z3.0000  
M06 T01  ; 0.0315  
G01 Z0.0000  F20    
M06 
G00 Z0.0500  
M03
G04 P0.000000
G82 X-1.1800 Y0.9050  Z-0.0730 F20    R0.0500  P0.010000
G82 X-1.7200 Y0.9050  
G82 X-3.3500 Y1.0016  
G82 X-3.3500 Y1.1984  
G82 X-3.4484 Y1.7500  
G82 X-3.2516 Y1.7500  
M05
G00 Z3.0000  
G00 X0.0000  Y0.0000  
M06 T02  ; 0.0320  
G01 Z0.0000  F20    
M06 
G00 Z0.0500  
M03
G04 P0.000000
G82 X-0.4000 Y0.7500  Z-0.0730 F20    R0.0500  P0.010000
G82 X-0.5500 Y0.9000  
G82 X-0.7500 Y1.0200  
G82 X-0.9000 Y1.0500  
G82 X-0.9500 Y0.9000  
G82 X-0.9500 Y0.7500  
G82 X-0.8000 Y0.7500  
G82 X-0.9500 Y0.4500  
G82 X-1.2000 Y0.5000  
G82 X-1.3000 Y0.5000  
G82 X-1.1500 Y0.6750  
G82 X-1.1500 Y0.7750  
G82 X-1.1750 Y1.1500  
G82 X-0.9000 Y1.2500  
G82 X-0.7500 Y1.3200  
G82 X-0.8800 Y1.5800  
G82 X-1.1750 Y1.5500  
G82 X-1.6500 Y1.4000  
G82 X-1.7500 Y1.4000  
G82 X-1.8500 Y1.4000  
G82 X-1.9500 Y1.4000  
G82 X-2.0500 Y1.4000  
G82 X-2.1500 Y1.4000  
G82 X-2.2500 Y1.4000  
G82 X-2.4250 Y1.4500  
G82 X-2.4250 Y1.5500  
G82 X-2.6300 Y1.6200  
G82 X-2.7300 Y1.6200  
G82 X-2.9000 Y1.6000  
G82 X-3.0800 Y1.6200  
G82 X-3.0800 Y1.7200  
G82 X-2.9000 Y1.8000  
G82 X-3.0000 Y1.4000  
G82 X-3.0500 Y1.2000  
G82 X-2.9000 Y1.2000  
G82 X-2.8250 Y1.1500  
G82 X-2.8250 Y1.2500  
G82 X-2.7000 Y1.2000  
G82 X-2.6000 Y1.1000  
G82 X-2.7000 Y1.0000  
G82 X-2.5000 Y0.9500  
G82 X-2.5000 Y0.8500  
G82 X-2.6000 Y0.7000  
G82 X-2.7300 Y0.5500  
G82 X-2.8250 Y0.5500  
G82 X-2.9000 Y0.6000  
G82 X-2.9000 Y0.5000  
G82 X-2.8550 Y0.7900  
G82 X-3.0500 Y1.0000  
G82 X-3.2000 Y1.0900  
G82 X-3.2000 Y1.1900  
G82 X-3.2550 Y0.7900  
G82 X-2.4250 Y1.0500  
G82 X-2.2500 Y1.1000  
G82 X-2.1500 Y1.1000  
G82 X-2.0500 Y1.1000  
G82 X-1.9500 Y1.1000  
G82 X-1.8500 Y1.1000  
G82 X-1.7500 Y1.1000  
G82 X-1.6500 Y1.1000  
G82 X-1.5500 Y0.7750  
G82 X-1.5500 Y0.6750  
G82 X-1.9100 Y0.7000  
G82 X-2.1000 Y0.8500  
G82 X-2.1000 Y0.9500  
G82 X-2.3300 Y0.5500  
G82 X-2.3800 Y0.4400  
G82 X-2.0800 Y0.4400  
G82 X-1.9100 Y0.3000  
G82 X-1.9000 Y1.5500  
G82 X-2.0250 Y1.5500  
G82 X-1.9000 Y1.7500  
G82 X-2.6000 Y1.4000  
G82 X-0.4800 Y1.5800  
M05
G00 Z3.0000  
G00 X0.0000  Y0.0000  
M06 T03  ; 0.0400  
G01 Z0.0000  F20    
M06 
G00 Z0.0500  
M03
G04 P0.000000
G82 X-3.6000 Y0.9000  Z-0.0730 F20    R0.0500  P0.010000
G82 X-3.6000 Y1.0000  
G82 X-3.6000 Y1.1000  
G82 X-3.6000 Y1.2000  
G82 X-3.6000 Y1.3000  
G82 X-3.6000 Y1.4000  
G82 X-3.6000 Y1.5000  
G82 X-3.6000 Y1.6000  
G82 X-3.7000 Y1.6000  
G82 X-3.7000 Y1.5000  
G82 X-3.7000 Y1.4000  
G82 X-3.7000 Y1.3000  
G82 X-3.7000 Y1.2000  
G82 X-3.7000 Y1.1000  
G82 X-3.7000 Y1.0000  
G82 X-3.7000 Y0.9000  
M05
G00 Z3.0000  
G00 X0.0000  Y0.0000  
M06 T04  ; 0.0440  
G01 Z0.0000  F20    
M06 
G00 Z0.0500  
M03
G04 P0.000000
G82 X-0.9000 Y1.4000  Z-0.0730 F20    R0.0500  P0.010000
G82 X-2.2500 Y1.6500  
M05
G00 Z3.0000  
G00 X0.0000  Y0.0000  
M06 T05  ; 0.0472  
G01 Z0.0000  F20    
M06 
G00 Z0.0500  
M03
G04 P0.000000
G82 X-0.8031 Y0.1500  Z-0.0730 F20    R0.0500  P0.010000
G82 X-1.0000 Y0.1500  
G82 X-1.1969 Y0.1500  
G82 X-1.5031 Y0.1500  
G82 X-1.7000 Y0.1500  
G82 X-1.8969 Y0.1500  
G82 X-2.2031 Y0.1500  
G82 X-2.4000 Y0.1500  
G82 X-2.5969 Y0.1500  
G82 X-2.9031 Y0.1500  
G82 X-3.1000 Y0.1500  
G82 X-3.2969 Y0.1500  
M05
G00 Z3.0000  
G00 X0.0000  Y0.0000  
M06 T06  ; 0.0512  
G01 Z0.0000  F20    
M06 
G00 Z0.0500  
M03
G04 P0.000000
G82 X-0.3700 Y0.0980  Z-0.0730 F20    R0.0500  P0.010000
G82 X-0.4031 Y0.0984  
G82 X-0.4370 Y0.0980  
G82 X-0.6080 Y0.4980  
G82 X-0.6079 Y0.5315  
G82 X-0.6080 Y0.5650  
G82 X-0.4360 Y0.6180  
G82 X-0.4031 Y0.6181  
G82 X-0.3700 Y0.6180  
G82 X-3.6700 Y0.6180  
G82 X-3.7031 Y0.6181  
G82 X-3.7360 Y0.6180  
G82 X-3.9080 Y0.5650  
G82 X-3.9079 Y0.5315  
G82 X-3.9080 Y0.4980  
G82 X-3.7370 Y0.0980  
G82 X-3.7031 Y0.0984  
G82 X-3.6700 Y0.0980  
T01 
G00 Z1.0000  
M05
M02
