(/Applications/pcbgcode.repo/pcb-gcode.ulp)
(Copyright 2005 - 2012 by John Johnson)
(See readme.txt for licensing terms.)
(This file generated from the board:)
(.../Woollaston-ADSR/eagle/woolston_adsr.brd)
(Current profile is .../pcbgcode.repo/profiles/mach.pp  )
(This file generated 1/1/16 9:39 PM)
(Settings from pcb-machine.h)
(spindle on time = 0.0000)
(spindle speed = 15000.0000)
(milling depth = -0.0630)
(tool change at 0.0000  0.0000  3.0000  )
(feed rate xy = F10    )
(feed rate z  = F5     )
(Z Axis Settings)
(  High     Up        Down     Drill)
(1.0000  	0.0500  	-0.0040 	-0.0730 )
(Settings from pcb-defaults.h)
(isolate min = 0.0010)
(isolate max = 0.0150)
(isolate step = 0.0015)
(Generated bottom outlines, bottom drill, )
(Unit of measure: inch)
(Inch Mode)
G20
(Absolute Coordinates)
G90
S15000
G00 Z1.0000  
G00 X0.0000  Y0.0000  
M03
G04 P0.000000
G00 Z0.0500  
G00 X-0.1700 Y0.0700  
G01 Z-0.0630 F5     
G01 X-0.2700 Y-0.0300 F10    
G01 X-3.9300 Y-0.0300 
G01 X-4.0000 Y0.0400  
G01 X-4.0000 Y0.6500  
G01 X-3.9000 Y0.7500  
G01 X-3.9000 Y1.7500  
G01 X-3.8000 Y1.8500  
G01 X-3.6500 Y1.8500  
G01 X-3.5000 Y2.0000  
G01 X-0.5000 Y2.0000  
G01 X-0.1700 Y1.4700  
G01 X-0.1700 Y0.0700  
G00 Z1.0000  
M05
M02
